X: 340
T: Chuanbusi de riben guizi
%%abc-version 2.0
%%abcx-abcm2ps-target-version 5.9.1 (29 Sep 2008)
%%abc-creator hum2abc beta
%%abcx-conversion-date 2013/10/02 07:52:30
%%abc-edited-by Helmut Schaffrath
%%humdrum-veritas 1667401189
%%humdrum-veritas-data 2283653630
%%continueall 1
%%barnumbers 0
L: 1/8
M: 2/4
K: F
f> d c c/ f/ [I:setbarnb 1]| 
c c/ G/ F C | 
F F/ G/ c c | 
C4 | 
f f/ d/ c f | 
c G F C | 
F G F C | 
F F/ G/ F C | 
B G F C | 
F> G F C | 
c G F C | 
F G F C | 
c G F C | 
F G F C | 
c G F C | 
c G F C | 
F F/ G/c2- | 
c4 | 
fc2B | 
G Fz2 |]  



